X:81
T:Charming Polly. JJo8.081, The
B:J.Johnson Choice Collection Vol 8 1758
Z:vmp.Simon Wilson 2013 www.village-music-project.org.uk
M:2/4
L:1/8
Q:1/4=100
K:A
|:ae-ec|cA2c|Bd2B|BG2E|CEAd|DFBd|caec|A2A2:|
|:cecA|BdBG|Aaf^d|bgeB|caf^d|bgeB|ce^df|e2E2:|
|:d2bd|GdEd|{d}c2ec|aecA|d2bd|GdEd|caec|A2A,2:|

